X:1265
T: Glasslough
T: R\'il an Ghlaslocha
S: B.Breathnach:"Ceol Rince na hEireann" IV/160
Z: B.Black
L: 1/8
M: 4/4
R: reel
K: G
de|ge e2 dB B2|gefg a2 af|ge e2 dBBA|Bgge d2 Bd|
ge e2 dB B2|gefg a2 af|ge e2 dBBA|Bgge d2 ||
BG|EA A2 GB B2|dege d2 BG|EA A2 GB B2|gedB ABAG|
EA A2 GB B2|dege d2 BG|EA A2 GB B2|gedB A2 ||
